img/svg/responsibility-icon6.svg

<svg width="80" height="80" viewBox="0 0 80 80" fill="none" xmlns="http://www.w3.org/2000/svg">
<circle cx="40" cy="40" r="40" fill="#0055FF" fill-opacity="0.03"/>
<path fill-rule="evenodd" clip-rule="evenodd" d="M22.6806 38.5571C23.0565 38.5571 23.3613 38.8619 23.3613 39.2378V40.7447C23.3613 43.3607 24.4005 45.8696 26.2503 47.7194C28.1001 49.5692 30.609 50.6084 33.225 50.6084H33.9791C34.355 50.6084 34.6598 50.9131 34.6598 51.289V53.6209H45.3484V51.2877C45.3484 50.9118 45.6531 50.607 46.029 50.607H46.775C49.391 50.607 51.8999 49.5678 53.7497 47.718C55.5995 45.8682 56.6387 43.3593 56.6387 40.7433V39.9184H26.4459C26.07 39.9184 25.7653 39.6137 25.7653 39.2378C25.7653 38.8619 26.07 38.5571 26.4459 38.5571H57.3194C57.6953 38.5571 58 38.8619 58 39.2378V40.7433C58 43.7204 56.8174 46.5755 54.7123 48.6806C52.6072 50.7857 49.7521 51.9683 46.775 51.9683H46.7097V54.3015C46.7097 54.6774 46.4049 54.9821 46.029 54.9821H33.9791C33.6032 54.9821 33.2985 54.6774 33.2985 54.3015V51.9697H33.225C30.2479 51.9697 27.3928 50.787 25.2877 48.6819C23.1826 46.5769 22 43.7217 22 40.7447V39.2378C22 38.8619 22.3047 38.5571 22.6806 38.5571Z" fill="#2093FF"/>
<path fill-rule="evenodd" clip-rule="evenodd" d="M40.6112 25.376C40.779 25.711 40.6443 26.1185 40.3105 26.2878C40.3099 26.2881 40.3085 26.2888 40.3064 26.29C40.3009 26.2929 40.2905 26.2985 40.276 26.3068C40.2468 26.3235 40.2014 26.3507 40.1453 26.3882C40.0317 26.464 39.8806 26.5777 39.7313 26.7271C39.429 27.0297 39.1777 27.4318 39.1777 27.9405C39.1777 28.1307 39.2869 28.4689 39.5652 28.9792C39.8303 29.4651 40.1885 30.0032 40.5696 30.5749L40.5796 30.59C40.9487 31.1436 41.3393 31.7294 41.6364 32.2741C41.9229 32.7995 42.1901 33.4026 42.1901 33.9654C42.1901 34.9631 41.6882 35.691 41.2372 36.1418C41.0099 36.369 40.7844 36.5378 40.6154 36.6504C40.5304 36.7071 40.4581 36.7505 40.4048 36.7809C40.3782 36.7961 40.3562 36.8082 40.3396 36.817C40.3313 36.8214 40.3244 36.825 40.3189 36.8279L40.3117 36.8315L40.309 36.8329L40.3078 36.8335L40.3073 36.8338C40.307 36.8339 40.3068 36.834 40.0026 36.2251L40.3068 36.834C39.9705 37.002 39.5617 36.8656 39.3937 36.5293C39.2258 36.1932 39.362 35.7847 39.6979 35.6165L39.6968 35.6171L39.6957 35.6176C39.6951 35.6179 39.6949 35.618 39.695 35.618C39.6952 35.6179 39.6967 35.6171 39.6994 35.6156C39.7049 35.6127 39.7153 35.6071 39.7299 35.5988C39.759 35.5821 39.8045 35.555 39.8607 35.5175C39.9743 35.4419 40.1255 35.3283 40.2749 35.179C40.5774 34.8767 40.8289 34.4747 40.8289 33.9654C40.8289 33.7748 40.7196 33.4362 40.4413 32.9259C40.1762 32.4398 39.818 31.9016 39.437 31.33L39.426 31.3135C39.0572 30.7604 38.667 30.1751 38.3702 29.6311C38.0838 29.106 37.8164 28.5031 37.8164 27.9405C37.8164 26.9436 38.3179 26.2158 38.7683 25.765C38.9954 25.5377 39.2207 25.3687 39.3895 25.2561C39.4744 25.1993 39.5467 25.1558 39.5998 25.1254C39.6264 25.1102 39.6484 25.0981 39.665 25.0893C39.6732 25.0849 39.6802 25.0812 39.6857 25.0784L39.6928 25.0747L39.6956 25.0733L39.6967 25.0727L39.6973 25.0725C39.6975 25.0723 39.6978 25.0722 40.0026 25.6808L39.6978 25.0722C40.0339 24.9039 40.4428 25.0399 40.6112 25.376ZM39.6979 35.6165C39.6979 35.6165 39.6978 35.6165 39.6979 35.6165V35.6165Z" fill="#2093FF"/>
<path fill-rule="evenodd" clip-rule="evenodd" d="M34.2848 26.2893C34.2848 26.2893 34.2848 26.2893 34.2848 26.2893L34.2848 26.2893ZM33.9799 25.6808L33.6755 25.072C34.0118 24.9039 34.4206 25.0402 34.5887 25.3764C34.7563 25.7116 34.6214 26.119 34.2874 26.288C34.2867 26.2883 34.2854 26.2891 34.2833 26.2902C34.2777 26.2931 34.2673 26.2988 34.2528 26.3071C34.2235 26.3238 34.178 26.351 34.1217 26.3885C34.0079 26.4644 33.8565 26.5781 33.7069 26.7275C33.4038 27.0303 33.1523 27.4323 33.1523 27.9405C33.1523 28.1305 33.2615 28.4687 33.5402 28.9789C33.8055 29.4649 34.164 30.003 34.5454 30.5747L34.5555 30.5897C34.9249 31.1434 35.3158 31.7292 35.6131 32.2739C35.8999 32.7993 36.1675 33.4025 36.1675 33.9654C36.1675 34.9631 35.6655 35.691 35.2146 36.1418C34.9872 36.369 34.7617 36.5378 34.5928 36.6504C34.5077 36.7071 34.4354 36.7505 34.3822 36.7809C34.3555 36.7961 34.3335 36.8082 34.3169 36.817C34.3086 36.8214 34.3017 36.825 34.2962 36.8279L34.289 36.8315L34.2863 36.8329L34.2851 36.8335L34.2846 36.8338C34.2843 36.8339 34.2841 36.834 33.9799 36.2251L34.2841 36.834C33.9478 37.002 33.539 36.8656 33.371 36.5293C33.2036 36.194 33.3387 35.7867 33.6727 35.6178C33.6733 35.6175 33.6747 35.6167 33.6768 35.6156C33.6823 35.6127 33.6926 35.6071 33.7072 35.5988C33.7364 35.5821 33.7818 35.555 33.838 35.5175C33.9516 35.4419 34.1028 35.3283 34.2522 35.179C34.5547 34.8767 34.8062 34.4747 34.8062 33.9654C34.8062 33.775 34.6969 33.4365 34.4183 32.9261C34.153 32.4401 33.7945 31.9019 33.4131 31.3302L33.4021 31.3138C33.033 30.7606 32.6425 30.1754 32.3454 29.6313C32.0587 29.1062 31.791 28.5032 31.791 27.9405C31.791 26.9431 32.2936 26.2152 32.7447 25.7645C32.9722 25.5373 33.1978 25.3684 33.3668 25.2557C33.4519 25.199 33.5243 25.1556 33.5775 25.1251C33.6042 25.1099 33.6262 25.0979 33.6427 25.089C33.651 25.0846 33.658 25.081 33.6634 25.0782L33.6706 25.0745L33.6734 25.0731L33.6745 25.0725L33.675 25.0723C33.6753 25.0721 33.6755 25.072 33.9799 25.6808ZM33.6753 35.6165C33.6753 35.6165 33.6752 35.6165 33.6752 35.6165L33.6753 35.6165Z" fill="#2093FF"/>
<path fill-rule="evenodd" clip-rule="evenodd" d="M46.6365 25.376C46.8044 25.711 46.6697 26.1185 46.3359 26.2878C46.3353 26.2881 46.3339 26.2888 46.3318 26.29C46.3263 26.2929 46.3159 26.2985 46.3014 26.3068C46.2722 26.3235 46.2268 26.3507 46.1706 26.3882C46.0571 26.464 45.906 26.5777 45.7567 26.7271C45.4544 27.0297 45.2031 27.4318 45.2031 27.9405C45.2031 28.1307 45.3123 28.4689 45.5906 28.9792C45.8557 29.4651 46.2139 30.0032 46.595 30.5749L46.605 30.59C46.9741 31.1436 47.3647 31.7294 47.6618 32.2741C47.9483 32.7995 48.2155 33.4026 48.2155 33.9654C48.2155 34.9631 47.7136 35.691 47.2626 36.1418C47.0353 36.369 46.8098 36.5378 46.6408 36.6504C46.5558 36.7071 46.4834 36.7505 46.4302 36.7809C46.4036 36.7961 46.3816 36.8082 46.365 36.817C46.3567 36.8214 46.3498 36.825 46.3443 36.8279L46.3371 36.8315L46.3343 36.8329L46.3332 36.8335L46.3326 36.8338C46.3324 36.8339 46.3322 36.834 46.028 36.2251L46.3322 36.834C45.9959 37.002 45.5871 36.8656 45.4191 36.5293C45.2512 36.1932 45.3874 35.7847 45.7233 35.6165L45.7222 35.6171L45.7211 35.6176C45.7205 35.6179 45.7203 35.618 45.7204 35.618C45.7206 35.6179 45.7221 35.6171 45.7248 35.6156C45.7303 35.6127 45.7407 35.6071 45.7553 35.5988C45.7844 35.5821 45.8299 35.555 45.8861 35.5175C45.9997 35.4419 46.1509 35.3283 46.3003 35.179C46.6027 34.8767 46.8543 34.4747 46.8543 33.9654C46.8543 33.7748 46.745 33.4362 46.4667 32.9259C46.2016 32.4398 45.8434 31.9016 45.4623 31.33L45.4514 31.3135C45.0826 30.7604 44.6924 30.1751 44.3956 29.6311C44.1092 29.106 43.8418 28.5031 43.8418 27.9405C43.8418 26.9436 44.3433 26.2158 44.7937 25.765C45.0208 25.5377 45.2461 25.3687 45.4148 25.2561C45.4998 25.1993 45.572 25.1558 45.6252 25.1254C45.6518 25.1102 45.6738 25.0981 45.6904 25.0893C45.6986 25.0849 45.7056 25.0812 45.7111 25.0784L45.7182 25.0747L45.721 25.0733L45.7221 25.0727L45.7227 25.0725C45.7229 25.0723 45.7232 25.0722 46.028 25.6808L45.7232 25.0722C46.0593 24.9039 46.4682 25.0399 46.6365 25.376ZM45.7233 35.6165C45.7233 35.6165 45.7232 35.6165 45.7233 35.6165V35.6165Z" fill="#2093FF"/>
<path fill-rule="evenodd" clip-rule="evenodd" d="M33.2969 51.2876C33.2969 50.9117 33.6016 50.6069 33.9775 50.6069H42.2622C42.6381 50.6069 42.9428 50.9117 42.9428 51.2876C42.9428 51.6635 42.6381 51.9682 42.2622 51.9682H33.9775C33.6016 51.9682 33.2969 51.6635 33.2969 51.2876Z" fill="#2093FF"/>
</svg>

<svg width="80" height="80" viewBox="0 0 80 80" fill="none" xmlns="http://www.w3.org/2000/svg"><circle cx="40" cy="40" r="40" fill="#05F" fill-opacity=".03"/><path fill-rule="evenodd" clip-rule="evenodd" d="M22.68 38.557a.68.68 0 01.681.68v1.508a9.864 9.864 0 009.864 9.863h.754a.68.68 0 01.68.681v2.332h10.69v-2.333a.68.68 0 01.68-.681h.746a9.864 9.864 0 009.864-9.864v-.825H26.446a.68.68 0 110-1.36h30.873a.68.68 0 01.681.68v1.505a11.225 11.225 0 01-11.225 11.225h-.065v2.333a.68.68 0 01-.681.681h-12.05a.68.68 0 01-.68-.68V51.97h-.074A11.225 11.225 0 0122 40.745v-1.507a.68.68 0 01.68-.68zm17.931-13.181a.68.68 0 01-.3.912l-.005.002a2.239 2.239 0 00-.161.098c-.113.076-.264.19-.414.34-.302.302-.553.704-.553 1.212 0 .19.109.529.387 1.04.265.485.623 1.023 1.005 1.595l.01.015c.369.554.76 1.14 1.056 1.684.287.526.554 1.129.554 1.691 0 .998-.502 1.726-.953 2.177a4.113 4.113 0 01-.897.675l-.021.01-.007.005h-.003l-.001.002-.305-.609.304.609a.68.68 0 01-.61-1.218v.001h-.001l-.001.001.004-.002.03-.017a2.748 2.748 0 00.545-.42c.303-.302.555-.704.555-1.214 0-.19-.11-.529-.388-1.04-.265-.485-.623-1.023-1.004-1.595l-.011-.016c-.369-.554-.759-1.139-1.056-1.683-.286-.525-.554-1.128-.554-1.69 0-.997.502-1.725.952-2.176a4.11 4.11 0 01.918-.687l.007-.003.003-.002h.001l.306.608-.305-.609a.68.68 0 01.913.304zm-.913 10.24zm-5.413-9.326zm-.305-.61l-.304-.608a.68.68 0 01.611 1.216l-.004.002a2.253 2.253 0 00-.162.098c-.113.076-.265.19-.414.34-.303.302-.555.704-.555 1.212 0 .19.11.529.388 1.039.266.486.624 1.024 1.005 1.596l.01.015c.37.553.76 1.14 1.058 1.684.287.525.554 1.129.554 1.691 0 .998-.502 1.726-.952 2.177a4.123 4.123 0 01-.898.675l-.02.01-.008.005h-.003v.002h-.001l-.305-.609.304.609a.68.68 0 01-.611-1.216l.004-.002.03-.017a2.748 2.748 0 00.545-.42c.303-.302.554-.704.554-1.214 0-.19-.11-.529-.388-1.039-.265-.486-.623-1.024-1.005-1.596l-.01-.016c-.37-.553-.76-1.139-1.058-1.683-.286-.525-.554-1.128-.554-1.69 0-.998.503-1.726.954-2.176a4.132 4.132 0 01.898-.676l.02-.01.008-.005h.002l.002-.002.305.609zm-.305 9.937zm12.961-10.241a.68.68 0 01-.335.93 2.76 2.76 0 00-.545.42c-.302.304-.553.706-.553 1.214 0 .19.11.529.388 1.04.265.485.623 1.023 1.004 1.595l.01.015c.37.554.76 1.14 1.057 1.684.286.526.553 1.129.553 1.691 0 .998-.501 1.726-.952 2.177a4.113 4.113 0 01-.898.675l-.02.01-.008.005h-.003v.002h-.001l-.305-.609.304.609a.68.68 0 01-.609-1.218v.001h-.002v.001l.004-.002.03-.017a2.748 2.748 0 00.545-.42c.303-.302.554-.704.554-1.214 0-.19-.109-.529-.387-1.04-.265-.485-.624-1.023-1.005-1.595l-.01-.016c-.37-.554-.76-1.139-1.056-1.683-.287-.525-.554-1.128-.554-1.69 0-.997.501-1.725.952-2.176a4.116 4.116 0 01.917-.687l.007-.003.003-.002h.001l.306.608-.305-.609a.68.68 0 01.913.304zm-.913 10.24z" fill="#2093FF"/><path fill-rule="evenodd" clip-rule="evenodd" d="M33.297 51.288a.68.68 0 01.68-.681h8.285a.68.68 0 010 1.361h-8.285a.68.68 0 01-.68-.68z" fill="#2093FF"/></svg>
